src/assets/icons/cars/car_seats.svg

<svg width="48" height="48" viewBox="0 0 48 48" fill="none" xmlns="http://www.w3.org/2000/svg">
<g id="Icons / Vertical Cars / Car seats">
<g id="Vector">
<path fill-rule="evenodd" clip-rule="evenodd" d="M37.0417 34.6928L37.0147 34.7328L36.9917 34.8778C36.9877 35.0038 36.9617 35.0128 36.9547 35.0418C36.9527 35.0658 36.9367 35.1078 36.9117 35.1628C36.8717 35.2828 36.8427 35.3148 36.7427 35.4848C36.3167 36.1378 35.8777 36.8088 35.4307 37.4948C35.3547 37.6078 35.3277 37.6138 35.3127 37.6298C35.3067 37.6468 35.2367 37.6888 35.2047 37.7218C35.1157 37.7828 35.0237 37.8378 34.9227 37.8698C34.8237 37.9068 34.7187 37.9228 34.6147 37.9268L33.9967 37.9278C30.5007 37.9148 26.7707 37.9348 23.0417 37.9218C19.3127 37.9368 15.5827 37.9998 12.0867 37.9998H11.5027C11.1967 37.9998 11.3147 37.9478 11.1597 37.9078C10.9567 37.8438 10.7787 37.6868 10.6467 37.5118C10.1997 36.8268 9.76269 36.1488 9.33669 35.4968C9.32369 35.4838 9.11469 35.1128 9.15569 35.1358C9.13569 35.1028 9.10169 34.9478 9.09569 34.8558C9.08369 34.7868 9.08169 34.5668 9.08169 34.3748L9.07969 33.8048C9.07669 33.0508 9.05969 32.3218 9.05669 31.6228L9.04169 31.3618V30.9998H9.05569L9.06869 31.0418C9.07469 30.8198 9.10769 30.8828 9.11269 30.8168C9.16369 30.6388 9.25569 30.5138 9.36369 30.3818C9.46169 30.2478 9.62869 30.1648 9.73369 30.1098C9.79069 30.0878 9.89769 30.0408 9.91369 30.0448C9.93469 30.0448 9.95369 30.0448 9.97169 30.0358C10.0367 30.0308 10.1157 30.0088 10.1867 30.0168C10.3327 30.0088 10.4737 30.0408 10.6007 30.0938C10.6667 30.1148 10.7247 30.1518 10.7827 30.1868C10.8387 30.2148 10.9777 30.3178 11.0677 30.3778C11.4737 30.6558 11.8457 30.9108 12.1827 31.1418C12.3277 31.2418 12.4637 31.3368 12.5937 31.4258L12.6427 31.4728C12.6917 31.5228 12.7377 31.5708 12.7837 31.6168C12.8117 31.6468 12.8427 31.6768 12.8707 31.7068C12.5597 31.8648 12.2847 32.0318 12.0577 32.2078C11.6207 32.5448 11.5397 33.1728 11.8757 33.6098C12.0737 33.8658 12.3697 33.9998 12.6687 33.9998C12.8817 33.9998 13.0967 33.9318 13.2787 33.7918C14.3977 32.9288 17.9297 31.9998 23.0417 31.9998C28.1517 31.9998 31.6847 32.9278 32.8037 33.7908C33.2407 34.1268 33.8687 34.0458 34.2067 33.6088C34.5437 33.1718 34.4617 32.5438 34.0247 32.2068C33.8027 32.0348 33.5367 31.8718 33.2347 31.7168C33.2617 31.6878 33.2897 31.6578 33.3157 31.6288C33.5617 31.3488 33.4577 31.4628 33.9067 31.1498C34.2437 30.9198 34.6157 30.6638 35.0207 30.3858L35.1747 30.2808L35.2417 30.2338L35.2757 30.2138L35.4427 30.1158C35.4917 30.0898 35.4887 30.1048 35.5117 30.0928C35.5867 30.0618 35.7637 30.0158 35.8967 30.0278C36.0397 30.0288 36.1897 30.0558 36.3287 30.1268L36.3557 30.1378L36.3647 30.1418L36.4187 30.1748C36.4697 30.2098 36.5827 30.2688 36.5827 30.2838C36.6047 30.3128 36.6487 30.3428 36.7117 30.4198C36.8187 30.5508 36.9087 30.7078 36.9597 30.8858C37.0047 31.0648 37.0077 31.2088 37.0047 31.6228C37.0017 32.3218 36.9997 33.0498 36.9967 33.8038L37.0187 34.3738L37.0417 34.6628V34.6928ZM13.5707 23.3838L15.0477 18.4598C15.4897 16.9878 16.8177 15.9998 18.3537 15.9998H27.7297C29.2657 15.9998 30.5937 16.9878 31.0357 18.4598L31.8357 21.1288C30.1867 23.8068 27.6217 26.0508 24.1357 27.8308C20.1357 29.8728 16.0847 30.6698 14.5647 30.9138C14.5067 30.7878 14.4357 30.6448 14.3257 30.4628C14.2817 30.3878 14.2307 30.3048 14.1637 30.2178L14.0497 30.0748C14.0447 30.0688 14.0367 30.0608 14.0307 30.0548C14.0317 30.0358 14.0417 30.0188 14.0417 29.9998V28.9998C14.0417 28.8938 14.0247 28.7878 13.9917 28.6868L13.3427 26.7218C13.1697 25.6118 13.2477 24.4598 13.5707 23.3838ZM18.0417 12.5548C18.0417 11.0738 19.0177 9.99976 20.3617 9.99976H25.7217C27.0657 9.99976 28.0417 11.0738 28.0417 12.5548V13.0158C28.0417 13.2468 27.9887 13.9998 27.3077 13.9998H18.7757C18.0947 13.9998 18.0417 13.2468 18.0417 13.0158V12.5548ZM32.7407 26.7218L32.0917 28.6868C32.0587 28.7878 32.0417 28.8938 32.0417 28.9998V29.9998C32.0417 30.0188 32.0517 30.0338 32.0517 30.0518C31.9127 30.2068 31.8137 30.3368 31.7417 30.4508C31.5827 30.7018 31.4897 30.8838 31.4237 31.0188C29.5117 30.4498 26.9507 30.0888 24.1227 30.0158C27.1457 28.5938 30.2647 26.5268 32.5547 23.5598C32.8357 24.5848 32.9047 25.6708 32.7407 26.7218ZM39.0867 33.8038C39.0837 33.0498 39.0817 32.3218 39.0787 31.6228C39.0807 31.3378 39.0857 30.7908 38.9477 30.3218C38.8127 29.8548 38.5747 29.4308 38.2717 29.0768C38.1307 28.9068 37.9387 28.7298 37.7147 28.5678C37.5987 28.4798 37.5687 28.4738 37.4927 28.4238L37.3947 28.3648L37.3157 28.3198L37.2967 28.3118L37.2577 28.2938L37.1807 28.2598C36.7757 28.0688 36.3337 27.9818 35.9117 27.9818C35.4757 27.9788 35.1027 28.0528 34.6897 28.2258C34.5927 28.2688 34.4637 28.3268 34.3997 28.3638L34.2807 28.4348L34.6647 27.2738C34.6807 27.2248 34.6927 27.1748 34.7017 27.1248C34.9397 25.6918 34.8457 24.1998 34.4287 22.8088L33.9947 21.3628C35.2597 19.0488 36.0417 16.2908 36.0417 12.9998C36.0417 12.4478 35.5937 11.9998 35.0417 11.9998C34.4897 11.9998 34.0417 12.4478 34.0417 12.9998C34.0417 14.9598 33.7317 16.7818 33.1257 18.4648L32.9517 17.8848C32.4587 16.2438 31.2607 14.9968 29.7487 14.3978C29.9307 13.9898 30.0417 13.5268 30.0417 13.0158V12.5548C30.0417 9.95776 28.1847 7.99976 25.7217 7.99976H20.3617C17.8987 7.99976 16.0417 9.95776 16.0417 12.5548V13.0158C16.0417 13.5268 16.1527 13.9898 16.3347 14.3978C14.8227 14.9968 13.6247 16.2438 13.1317 17.8848L11.6547 22.8098C11.2377 24.1998 11.1437 25.6918 11.3817 27.1248C11.3907 27.1748 11.4027 27.2248 11.4187 27.2738L11.8097 28.4568C11.6687 28.3698 11.5257 28.2858 11.3647 28.2238C11.0037 28.0728 10.5947 27.9838 10.1717 27.9908C9.95869 27.9838 9.75169 28.0198 9.52769 28.0588C9.40569 28.0898 9.28169 28.1248 9.15969 28.1648C9.03169 28.2078 9.00569 28.2278 8.92369 28.2608C8.48569 28.4628 8.12469 28.7198 7.81769 29.0818C7.51569 29.4358 7.27869 29.8578 7.14369 30.3238C7.07469 30.5838 7.02469 30.9128 7.02569 31.0338L7.01669 31.1628L7.01369 31.3618L7.01269 31.6228C7.00969 32.3218 7.00669 33.0498 7.00369 33.8038L7.00169 34.3738C7.00169 34.5648 6.99169 34.7338 7.01869 35.0518C7.05069 35.3448 7.08769 35.5848 7.21769 35.9158C7.37769 36.3168 7.38369 36.2908 7.57469 36.6208C7.78969 36.9588 8.00769 37.3018 8.22869 37.6478L8.56269 38.1708L8.73069 38.4348C8.77969 38.5138 8.84269 38.6138 8.94669 38.7528C9.31169 39.2518 9.83269 39.6628 10.4447 39.8758C10.6907 39.9858 11.2397 40.0308 11.3657 40.0258L11.5967 39.9998H11.7597L12.0867 40.0348C15.5827 40.0488 19.3127 40.0808 23.0417 40.0958C26.7707 40.0818 30.5007 40.0768 33.9967 40.0638L34.6837 40.0608C35.0117 40.0488 35.3367 39.9908 35.6407 39.8778C35.9467 39.7718 36.2287 39.6128 36.4837 39.4248C36.6097 39.3168 36.7217 39.2428 36.8517 39.0978C36.9827 38.9608 37.1037 38.8158 37.1437 38.7518L37.2727 38.5708L37.3577 38.4378L37.8587 37.6508C38.0797 37.3048 38.2987 36.9618 38.5137 36.6248C38.6187 36.4518 38.8057 36.1428 38.8837 35.8848C38.9837 35.6728 39.0657 35.1898 39.0727 35.0278L39.0877 34.8098L39.0897 34.6628L39.0867 33.8038Z" fill="#253238"/>
<path fill-rule="evenodd" clip-rule="evenodd" d="M20.5705 20.7606C21.2785 20.3196 22.0935 19.9996 22.9305 19.9996H23.1525C23.9905 19.9996 24.8075 20.3196 25.5155 20.7616C25.6795 20.8646 25.8625 20.9566 26.0445 20.9566C26.3775 20.9566 26.7035 20.8116 26.8935 20.5086C27.1855 20.0396 27.0435 19.3476 26.5745 19.0546C25.5495 18.4136 24.3655 17.9996 23.1525 17.9996H22.9305C21.7195 17.9996 20.5375 18.4236 19.5115 19.0636C19.0435 19.3556 18.9005 19.9726 19.1925 20.4416C19.4855 20.9096 20.1025 21.0526 20.5705 20.7606Z" fill="#253238"/>
</g>
</g>
</svg>

<svg width="48" height="48" viewBox="0 0 48 48" fill="none" xmlns="http://www.w3.org/2000/svg"><g fill-rule="evenodd" clip-rule="evenodd" fill="#253238"><path d="M37.042 34.693l-.027.04-.023.145c-.004.126-.03.135-.037.164a.466.466 0 01-.043.12c-.04.12-.07.153-.17.323l-1.311 2.01c-.076.113-.103.119-.118.135-.006.017-.076.059-.108.092a1.088 1.088 0 01-.282.148.987.987 0 01-.308.057h-.618c-3.496-.012-7.226.008-10.955-.005-3.73.015-7.46.078-10.955.078h-.584c-.306 0-.188-.052-.343-.092-.203-.064-.381-.221-.513-.396-.447-.685-.884-1.363-1.31-2.015-.013-.013-.222-.384-.181-.361a1.033 1.033 0 01-.06-.28 4.778 4.778 0 01-.014-.481l-.002-.57c-.003-.754-.02-1.483-.023-2.182l-.015-.261V31h.014l.013.042c.006-.222.039-.16.044-.225.05-.178.143-.303.25-.435.099-.134.266-.217.37-.272.058-.022.165-.07.18-.065.022 0 .04 0 .059-.01.065-.004.144-.026.215-.018a.943.943 0 01.414.077c.066.02.124.058.182.093.056.028.195.13.285.19l1.115.765.41.284.05.047.14.144.088.09a5.117 5.117 0 00-.813.5 1 1 0 001.22 1.585C14.399 32.929 17.93 32 23.043 32c5.11 0 8.643.928 9.762 1.79a1 1 0 101.221-1.584 5.087 5.087 0 00-.79-.49c.027-.028.055-.058.08-.087.247-.28.143-.166.592-.48l1.114-.763.154-.105.067-.047.034-.02.167-.098c.049-.026.046-.011.069-.023a.977.977 0 01.385-.065.96.96 0 01.432.099l.027.01.009.005.054.033c.05.035.164.094.164.109.022.029.066.059.129.136.107.13.197.288.248.466.045.179.048.323.045.737l-.008 2.18.022.57.023.29v.03zM13.57 23.383l1.477-4.923A3.43 3.43 0 0118.354 16h9.376a3.43 3.43 0 013.306 2.46l.8 2.669c-1.65 2.678-4.214 4.922-7.7 6.702-4 2.042-8.051 2.839-9.571 3.083a4.355 4.355 0 00-.401-.696l-.114-.143-.02-.02c.002-.02.012-.036.012-.055v-1a1.01 1.01 0 00-.05-.313l-.65-1.965a7.599 7.599 0 01.229-3.338zm4.47-10.828c0-1.481.977-2.555 2.32-2.555h5.36c1.345 0 2.32 1.074 2.32 2.555v.46c0 .232-.052.985-.733.985h-8.532c-.681 0-.734-.753-.734-.984v-.461zm14.7 14.167l-.65 1.965a1.01 1.01 0 00-.05.313v1c0 .019.01.034.01.052a3.035 3.035 0 00-.31.399 5.61 5.61 0 00-.317.568c-1.912-.57-4.473-.93-7.301-1.003 3.023-1.422 6.142-3.49 8.432-6.456a7.586 7.586 0 01.186 3.162zm6.346 7.082l-.008-2.181c.002-.285.007-.832-.131-1.301a3.357 3.357 0 00-.676-1.245 3.068 3.068 0 00-.557-.51c-.116-.087-.146-.093-.222-.143l-.098-.06-.08-.044-.018-.008-.04-.018-.076-.034a2.993 2.993 0 00-1.27-.278 2.956 2.956 0 00-1.221.244 3.903 3.903 0 00-.29.138l-.12.07.385-1.16c.016-.05.028-.1.037-.15a9.621 9.621 0 00-.273-4.315l-.434-1.446c1.265-2.314 2.047-5.072 2.047-8.363a1 1 0 00-2 0c0 1.96-.31 3.782-.916 5.465l-.174-.58a5.407 5.407 0 00-3.203-3.487 3.37 3.37 0 00.293-1.382v-.461c0-2.597-1.857-4.555-4.32-4.555h-5.36c-2.463 0-4.32 1.958-4.32 4.555v.46c0 .512.11.975.293 1.383a5.407 5.407 0 00-3.203 3.487l-1.477 4.925a9.616 9.616 0 00-.273 4.315c.009.05.02.1.037.149l.39 1.183a2.98 2.98 0 00-1.638-.466 3.142 3.142 0 00-.643.068 5.654 5.654 0 00-.368.106c-.128.043-.154.063-.236.096a3.1 3.1 0 00-1.106.82 3.362 3.362 0 00-.674 1.243c-.07.26-.12.589-.118.71l-.01.129-.002.199-.001.26-.01 2.182-.001.57c0 .19-.01.36.017.678.032.293.069.533.199.864.16.4.166.375.357.705l.654 1.027.334.523.168.264c.049.079.112.179.216.318.365.499.886.91 1.498 1.123.246.11.795.155.92.15l.232-.026h.163l.327.035c3.496.014 7.226.046 10.955.06 3.729-.013 7.459-.018 10.955-.031l.687-.003a3.186 3.186 0 001.8-.636c.126-.108.238-.182.368-.327.13-.137.252-.282.292-.346l.129-.181.085-.133.5-.787.656-1.026c.105-.173.292-.482.37-.74.1-.212.182-.695.189-.857l.015-.218.002-.147-.003-.86z"/><path d="M20.57 20.76c.709-.44 1.523-.76 2.36-.76h.223c.838 0 1.655.32 2.363.762.164.103.347.195.529.195a.98.98 0 00.848-.448c.293-.47.15-1.161-.319-1.454C25.55 18.414 24.366 18 23.152 18h-.222c-1.21 0-2.392.424-3.418 1.064a1 1 0 001.058 1.697z"/></g></svg>
